X:42
T:If All The World Were Paper. (p)1651.PLFD.042
M:6/4
L:1/4
Q:3/4=90
S:Playford, Dancing Master,1st Ed.,1651.
O:England
H:1651.
Z:Chris Partington.
K:C % transposed from D
G|A2 G A2 B|c3 C2D|E2 D E2 F|G3-G2 E|
F2 E F2 G|A2 F D2 c|d2 G A2 B|c3-c2:|
